build/category/EnvelopeOutline.svg

<svg xmlns="http://www.w3.org/2000/svg" fill="none" viewBox="0 0 24 24" focusable="false"><path d="M0 0H24V24H0z"/><path fill="#74767B" fill-rule="evenodd" d="M19.7231 8.69285L18 7.48389L18 6C18 4.34315 16.6569 3 15 3L9 3C7.34315 3 6 4.34315 6 6L6 7.48389L4.27692 8.69285C3.47651 9.25445 3 10.1709 3 11.1487L3 18C3 19.6569 4.34315 21 6 21L18 21C19.6569 21 21 19.6569 21 18L21 11.1487C21 10.1709 20.5235 9.25445 19.7231 8.69285ZM9 4.3L15 4.3C15.9389 4.3 16.7 5.06112 16.7 6L16.7 11.549L13.3994 13.967C12.5672 14.5767 11.4347 14.5723 10.6072 13.9563L7.3 11.494L7.3 6C7.3 5.06112 8.06112 4.3 9 4.3ZM9.6124 6.63361C9.25342 6.63361 8.9624 6.92462 8.9624 7.28361C8.9624 7.64259 9.25342 7.93361 9.6124 7.93361L14.366 7.93361C14.725 7.93361 15.016 7.64259 15.016 7.28361C15.016 6.92462 14.725 6.63361 14.366 6.63361L9.6124 6.63361ZM19.0603 9.81981L18 10.5966L18 9.07196L18.9764 9.75704C19.0051 9.77717 19.0331 9.79811 19.0603 9.81981ZM5.02359 9.75704L6 9.07196L6 10.5262L4.99473 9.77774C5.00427 9.77075 5.01389 9.76385 5.02359 9.75704ZM9.6124 9.66418C9.25342 9.66418 8.9624 9.9552 8.9624 10.3142C8.9624 10.6732 9.25342 10.9642 9.6124 10.9642L14.366 10.9642C14.725 10.9642 15.016 10.6732 15.016 10.3142C15.016 9.9552 14.725 9.66418 14.366 9.66418L9.6124 9.66418ZM19.6906 10.9696L15.4392 14.0842L18.008 16.0155C18.2949 16.2312 18.3526 16.6387 18.1369 16.9256C17.9212 17.2126 17.5137 17.2703 17.2267 17.0546L14.3435 14.8869L14.1677 15.0157C12.8751 15.9626 11.1161 15.9559 9.83091 14.999L9.66685 14.8769L6.77032 17.0546C6.48339 17.2703 6.0759 17.2126 5.86017 16.9256C5.64444 16.6387 5.70217 16.2312 5.9891 16.0155L8.57991 14.0676L4.31896 10.8953C4.30643 10.9785 4.3 11.0632 4.3 11.1487L4.3 18C4.3 18.9389 5.06112 19.7 6 19.7L18 19.7C18.9389 19.7 19.7 18.9389 19.7 18L19.7 11.1487C19.7 11.0885 19.6968 11.0287 19.6906 10.9696Z"/></svg>

<svg xmlns="http://www.w3.org/2000/svg" fill="none" viewBox="0 0 24 24" focusable="false"><path fill="#74767B" fill-rule="evenodd" d="M19.72 8.69 18 7.48V6c0-1.66-1.35-3-3-3H9C7.34 3 6 4.34 6 6v1.48L4.27 8.69C3.47 9.25 3 10.17 3 11.14V18c0 1.65 1.34 3 3 3h12c1.65 0 3-1.35 3-3v-6.86c0-.97-.48-1.89-1.28-2.45M9 4.29h6c.93 0 1.7.77 1.7 1.71v5.54l-3.31 2.42c-.83.61-1.96.61-2.79-.01l-3.31-2.46V6c0-.94.77-1.71 1.71-1.71m-.04 2.99c0-.36.29-.65.65-.65h4.75c.36 0 .65.29.65.65s-.29.65-.65.65H9.61c-.36 0-.65-.29-.65-.65m10.1 2.53-1.06.78V9.07l.97.68zM5.02 9.75 6 9.07v1.45l-1.01-.75c.01 0 .02-.01.03-.02m4.59-.09c-.36 0-.65.29-.65.65s.29.65.65.65h4.75c.36 0 .65-.29.65-.65s-.29-.65-.65-.65zm10.08 1.3-4.26 3.12L18 16.01c.29.22.35.62.13.91-.21.29-.62.35-.91.13l-2.88-2.17-.18.13a3.63 3.63 0 0 1-4.33-.02l-.17-.12-2.89 2.18c-.29.22-.7.16-.91-.13a.65.65 0 0 1 .12-.91l2.6-1.95-4.27-3.17c-.01.08-.02.17-.02.25V18c0 .93.77 1.7 1.71 1.7h12c.93 0 1.7-.77 1.7-1.7v-6.86c0-.06-.01-.12-.01-.18"/></svg>
